icons/svg/old_road_shields/h_ter_shield3.svg

<svg width="32" height="17" viewBox="0 0 32 17" fill="none" xmlns="http://www.w3.org/2000/svg">
<g clip-path="url(#clip0)">
<path fill-rule="evenodd" clip-rule="evenodd" d="M8.028 0H23.257C27.657 0 31.257 3.606 31.257 8.013V8.93C31.257 13.366 27.657 16.971 23.257 16.971H8.028C3.6 16.97 0 13.365 0 8.929V8.013C0 3.606 3.6 0 8.028 0Z" fill="#E7E768"/>
<path fill-rule="evenodd" clip-rule="evenodd" d="M8.22899 1.08701H23.029C26.857 1.08701 30 4.23501 30 8.09901V8.87101C30 12.707 26.857 15.853 23.029 15.853H8.22899C4.39999 15.853 1.25699 12.707 1.25699 8.87101V8.09901C1.25699 4.23501 4.39899 1.08701 8.22899 1.08701Z" fill="white"/>
<path fill-rule="evenodd" clip-rule="evenodd" d="M8.60001 2.547H22.685C25.771 2.547 28.285 5.066 28.285 8.156V8.786C28.285 11.877 25.771 14.424 22.685 14.424H8.60001C5.51401 14.424 2.97101 11.877 2.97101 8.786V8.156C2.97101 5.065 5.51401 2.547 8.60001 2.547Z" fill="#E7E768"/>
</g>
<defs>
<clipPath id="clip0">
<path d="M0 0H31.257V16.969H0V0Z" fill="white"/>
</clipPath>
</defs>
</svg>

<?xml version="1.0" encoding="utf-8"?>
<!-- Generator: Adobe Illustrator 16.0.4, SVG Export Plug-In . SVG Version: 6.00 Build 0)  -->
<!DOCTYPE svg PUBLIC "-//W3C//DTD SVG 1.1//EN" "http://www.w3.org/Graphics/SVG/1.1/DTD/svg11.dtd">
<svg version="1.1" id="Слой_1" xmlns="http://www.w3.org/2000/svg" xmlns:xlink="http://www.w3.org/1999/xlink" x="0px" y="0px"
	 width="31.257px" height="16.969px" viewBox="0 0 31.257 16.969" enable-background="new 0 0 31.257 16.969" xml:space="preserve">
<path fill-rule="evenodd" clip-rule="evenodd" fill="#E7E768" d="M8.028,0h15.229c4.4,0,8,3.606,8,8.013v0.917
	c0,4.436-3.6,8.041-8,8.041H8.028C3.6,16.97,0,13.365,0,8.929V8.013C0,3.606,3.6,0,8.028,0L8.028,0z"/>
<path fill-rule="evenodd" clip-rule="evenodd" fill="#FFFFFF" d="M8.229,1.087h14.8C26.857,1.087,30,4.235,30,8.099v0.772
	c0,3.836-3.143,6.982-6.971,6.982h-14.8c-3.829,0-6.972-3.146-6.972-6.982V8.099C1.257,4.235,4.399,1.087,8.229,1.087L8.229,1.087z"
	/>
<path fill-rule="evenodd" clip-rule="evenodd" fill="#E7E768" d="M8.6,2.547h14.085c3.086,0,5.6,2.519,5.6,5.609v0.63
	c0,3.091-2.514,5.638-5.6,5.638H8.6c-3.086,0-5.629-2.547-5.629-5.638v-0.63C2.971,5.065,5.514,2.547,8.6,2.547L8.6,2.547z"/>
</svg>
